X:517
T:B517-  Who Liveth So Merry in All This Land
Q:1/4=120
L:1/4
M:6/4
K:G
G|A3/2G/DGGG|A3/2B/AB2B|c3/2B/AB3/2A/G|A3/2B/AG2G|\
A3/2G/DGGG|A2AB2B/B/|c3/2B/AB3/2A/G|A3/2B/A.G2|]

